X:108
T:I Know That My Redeemer Lives
%%stretchlast false
M:4/4
L:1/4
K:C clef=C1
"^I"[C,E,C]2 [C,G,CE] "^V7²"[D,G,B,F] | "^I¹"[E,G,CG]2 "^IV"[F,CA] "^vii°¹"[D,F,FB] | "^I"[C,G,Ec]2 "^V²"[D,G,DB] "^II7"[D,^F,CA] | "^V"[G,,G,B,G]4 | "^I"[C,E,CG]2 [C,E,CG] "^I¹"[E,G,CG] | "^IV"[F,CA]2 "^I¹"[E,G,CG] "^iii"[E,G,G] | "^ii"[D,F,A,F] [D,F,B,F] "^I"[C,G,CE]2 | "^V"[G,,G,B,D]4 | "^I"[C,G,CE]2 [C,G,CE] "^V7"[G,,F,B,D] | "^I"[C,E,G,C] [C,F,CE] "^I¹"[E,G,CG] [E,G,Cc] | "^IV"[F,CA] "^I¹"[E,CG] "^V7²"[D,G,B,F] "^I"[C,G,CE] | "^V"[G,,G,B,D]4 | "^I¹"[E,G,CG]2 "^IV"[F,CA] "^vii°¹"[D,F,DB] | "^I"[C,E,Ec]3/2 "^ii7"[D,F,Dc]/ "^I¹"[E,G,Cc] "^ii¹"[F,A,DF] | "^I²"[G,CE]2 "^V7"[G,,F,B,D]2 | "^I"[C,E,C]4 |]
